svg/u27bf.svg

<svg viewBox="0 0 128 128" xmlns="http://www.w3.org/2000/svg">
  <path d="M5.68,37.74l-1.75,2.63c0,0-0.13,3.12,0.55,3.83c0.91,0.96,4.6,0.66,7.22,0.77 c2.63,0.11,5.91,0.77,5.91,0.77l6.79-5.36L5.68,37.74z" fill="#464C4F"/>
  <path d="M6.48,68.74c0.11,1.59-0.32,8.23,4.99,17.41c3.55,6.13,10.92,13.03,21.25,13.21 c24.95,0.44,29.71-25.21,28.2-32.71c-1.07-5.33-17.26,20.56-17.26,20.56S23.49,89.8,22.5,88.27C21.52,86.74,6.48,68.74,6.48,68.74z" fill="#464C4F"/>
  <path d="M66.31,66.31c0,0-1.31,11.48,4.49,21.01c3.84,6.3,10.84,12.04,22,12.48 c11.16,0.44,19.7-5.36,24.41-14.12c6.04-11.23,2.7-22.38,2.7-22.38l-11.79,21.95l-18.5,6.79c0,0-19.26-20.25-19.37-20.58 S66.31,66.31,66.31,66.31z" fill="#464C4F"/>
  <path d="M124.21,27.78c-0.3-0.57-2.37-0.55-4.16-0.66c-1.2-0.07-9.93-0.1-15.76,1.42 c-8.58,2.24-13.09,4.39-13.09,4.39S78.57,28,63.03,27.89s-28.67,5.25-28.67,5.25S25,29.56,18.81,28.44 c-7.6-1.38-14.33-0.92-14.33-0.92c-0.33,0.66-0.61,13.12-0.61,13.12s5.5-0.13,8.59,0.39c3.31,0.56,5.91,1.64,5.91,1.64 S5.76,55.06,6.56,69.59c0.66,11.93,11.16,27.03,28.13,26.7c16.96-0.33,25.98-15.43,26.27-28.02C61.28,53.94,49.24,43,49.24,43 l5.36-2.3l18.5-0.22l3.23,3.17c0,0-10.67,11.28-10.01,24.63s10.94,28.46,27.36,28.57c17.18,0.11,26.7-15.65,26.7-29.22 c0-12.38-11.36-24.81-11.36-24.81l-0.35-1.35l15.37-1.68C124.03,39.78,124.42,28.18,124.21,27.78z M34.03,85.13 c-9.19,0.33-15.72-9.02-14.01-18.28c2.08-11.27,13.57-18.39,13.57-18.39s12.05,7.94,13.94,19.3C48.74,75.04,44.99,84.73,34.03,85.13 z M93.46,85.46c-8.8-0.4-13.51-6.67-13.24-16.09c0.33-11.71,11.38-20.79,12.59-20.79c0,0,13.46,8.1,14.34,20.58 C107.73,77.56,101.88,85.84,93.46,85.46z" fill="#606265"/>
  <path d="M76.33,43.67c0,0,2.77-2.87,2.8-2.94c0.4-1.12-19.17-5-35.88,0.8c-10.77,3.74-16.14,8.8-19.37,13.86 c-4.04,6.32-4.03,12.33-4.03,12.33s4.66-18.57,26.85-23.81C66.56,39.24,76.33,43.67,76.33,43.67z" fill="#464C4F"/>
  <path d="M80.81,64.93c0,0,5.46-15.31,20.74-20.55c9.79-3.36,22.25-1.01,22.39-1.29s0.09-3.37,0.09-3.37 s-13.83-3.05-26.23,3.2c-6.66,3.36-10.53,7.64-12.66,11.05C81.51,59.78,80.81,64.93,80.81,64.93z" fill="#464C4F"/>
  <path d="M7.26,30.41c-1.14,0.89-0.97,5.36,0.73,5.68c2.19,0.42,3.57-1.62,4.95-1.87 c1.38-0.24,4.38-0.32,4.46-2.19C17.48,30.16,9.85,28.38,7.26,30.41z" fill="#9A9A99"/>
  <path d="M12.66,58.09c2.45,1.4,6.05-7.71,16.3-14.29c8.42-5.4,16.27-7.27,15.87-9.03 c-0.53-2.28-10.78-0.18-19.81,6.57C16.58,47.66,10.21,56.69,12.66,58.09z" fill="#9A9A99"/>
  <path d="M37.7,88.77c0.83,2.36,5.76,1.17,8.86-1.89c3.09-3.04,4.08-6.85,2.25-7.5 c-2.22-0.79-2.95,2.3-5.67,4.55C40.67,85.97,37.05,86.91,37.7,88.77z" fill="#9A9A99"/>
  <path d="M109.84,76.66c-2.25-0.24-2.01,2.6-4.02,5.2c-1.92,2.48-5.08,3.64-4.61,5.44 c0.6,2.26,5.47,0.77,7.92-2.78C111.49,81.09,112.27,76.92,109.84,76.66z" fill="#9A9A99"/>
  <path d="M83.9,40.56c-10.24,8.3-13,16.31-11.4,17.55c1.6,1.24,6.32-8.15,14.18-14.42 c7.77-6.19,17.31-7.44,16.07-10.28C101.48,30.51,90.76,35.01,83.9,40.56z" fill="#9A9A99"/>
</svg>

<svg viewBox="0 0 128 128" xmlns="http://www.w3.org/2000/svg">
  <defs/>
  <path d="M5.68,37.74 L3.93,40.37 C3.93,40.37 3.8,43.49 4.48,44.2 C5.39,45.16 9.08,44.86 11.7,44.97 C14.33,45.08 17.61,45.74 17.61,45.74 L24.4,40.38 L5.68,37.74 Z" fill="#464C4F"/>
  <path d="M6.48,68.74 C6.59,70.33 6.16,76.97 11.47,86.15 C15.02,92.28 22.39,99.18 32.72,99.36 C57.67,99.8 62.43,74.15 60.92,66.65 C59.85,61.32 43.66,87.21 43.66,87.21 C43.66,87.21 23.49,89.8 22.5,88.27 C21.52,86.74 6.48,68.74 6.48,68.74 Z" fill="#464C4F"/>
  <path d="M66.31,66.31 C66.31,66.31 65,77.79 70.8,87.32 C74.64,93.62 81.64,99.36 92.8,99.8 C103.96,100.24 112.5,94.44 117.21,85.68 C123.25,74.45 119.91,63.3 119.91,63.3 L108.12,85.25 L89.62,92.04 C89.62,92.04 70.36,71.79 70.25,71.46 C70.14,71.13 66.31,66.31 66.31,66.31 Z" fill="#464C4F"/>
  <path d="M124.21,27.78 C123.91,27.21 121.84,27.23 120.05,27.12 C118.85,27.05 110.12,27.02 104.29,28.54 C95.71,30.78 91.2,32.93 91.2,32.93 C91.2,32.93 78.57,28 63.03,27.89 C47.49,27.78 34.36,33.14 34.36,33.14 C34.36,33.14 25,29.56 18.81,28.44 C11.21,27.06 4.48,27.52 4.48,27.52 C4.15,28.18 3.87,40.64 3.87,40.64 C3.87,40.64 9.37,40.51 12.46,41.03 C15.77,41.59 18.37,42.67 18.37,42.67 C18.37,42.67 5.76,55.06 6.56,69.59 C7.22,81.52 17.72,96.62 34.69,96.29 C51.65,95.96 60.67,80.86 60.96,68.27 C61.28,53.94 49.24,43 49.24,43 L54.6,40.7 L73.1,40.48 L76.33,43.65 C76.33,43.65 65.66,54.93 66.32,68.28 C66.98,81.63 77.26,96.74 93.68,96.85 C110.86,96.96 120.38,81.2 120.38,67.63 C120.38,55.25 109.02,42.82 109.02,42.82 L108.67,41.47 L124.04,39.79 C124.03,39.78 124.42,28.18 124.21,27.78 Z M34.03,85.13 C24.84,85.46 18.31,76.11 20.02,66.85 C22.1,55.58 33.59,48.46 33.59,48.46 C33.59,48.46 45.64,56.4 47.53,67.76 C48.74,75.04 44.99,84.73 34.03,85.13 Z M93.46,85.46 C84.66,85.06 79.95,78.79 80.22,69.37 C80.55,57.66 91.6,48.58 92.81,48.58 C92.81,48.58 106.27,56.68 107.15,69.16 C107.73,77.56 101.88,85.84 93.46,85.46 Z" fill="#606265"/>
  <path d="M76.33,43.67 C76.33,43.67 79.1,40.8 79.13,40.73 C79.53,39.61 59.96,35.73 43.25,41.53 C32.48,45.27 27.11,50.33 23.88,55.39 C19.84,61.71 19.85,67.72 19.85,67.72 C19.85,67.72 24.51,49.15 46.7,43.91 C66.56,39.24 76.33,43.67 76.33,43.67 Z" fill="#464C4F"/>
  <path d="M80.81,64.93 C80.81,64.93 86.27,49.62 101.55,44.38 C111.34,41.02 123.8,43.37 123.94,43.09 C124.08,42.81 124.03,39.72 124.03,39.72 C124.03,39.72 110.2,36.67 97.8,42.92 C91.14,46.28 87.27,50.56 85.14,53.97 C81.51,59.78 80.81,64.93 80.81,64.93 Z" fill="#464C4F"/>
  <path d="M7.26,30.41 C6.12,31.3 6.29,35.77 7.99,36.09 C10.18,36.51 11.56,34.47 12.94,34.22 C14.32,33.98 17.32,33.9 17.4,32.03 C17.48,30.16 9.85,28.38 7.26,30.41 Z" fill="#9A9A99"/>
  <path d="M12.66,58.09 C15.11,59.49 18.71,50.38 28.96,43.8 C37.38,38.4 45.23,36.53 44.83,34.77 C44.3,32.49 34.05,34.59 25.02,41.34 C16.58,47.66 10.21,56.69 12.66,58.09 Z" fill="#9A9A99"/>
  <path d="M37.7,88.77 C38.53,91.13 43.46,89.94 46.56,86.88 C49.65,83.84 50.64,80.03 48.81,79.38 C46.59,78.59 45.86,81.68 43.14,83.93 C40.67,85.97 37.05,86.91 37.7,88.77 Z" fill="#9A9A99"/>
  <path d="M109.84,76.66 C107.59,76.42 107.83,79.26 105.82,81.86 C103.9,84.34 100.74,85.5 101.21,87.3 C101.81,89.56 106.68,88.07 109.13,84.52 C111.49,81.09 112.27,76.92 109.84,76.66 Z" fill="#9A9A99"/>
  <path d="M83.9,40.56 C73.66,48.86 70.9,56.87 72.5,58.11 C74.1,59.35 78.82,49.96 86.68,43.69 C94.45,37.5 103.99,36.25 102.75,33.41 C101.48,30.51 90.76,35.01 83.9,40.56 Z" fill="#9A9A99"/>
</svg>
